X:1
T:In The Garden
T:In The Garden
T:Charles Schuetze
C:Charles Schuetze
%%score { ( 1 3 ) | 2 }
L:1/8
Q:1/4=60
M:4/4
K:Eb
V:1 treble nm="Harp"
V:3 treble 
V:2 bass 
V:1
"^Andante con moto" z/4 B,/4E/4G/4B/4G/4E/4B,/4 z/4 B,/4E/4G/4B/4G/4E/4B,/4 z/4 B,/4E/4G/4B/4G/4E/4B,/4 z/4 B,/4E/4G/4B/4G/4E/4B,/4 | %1
 z/4 A,/4_C/4E/4F/4E/4C/4A,/4 z/4 A,/4C/4E/4F/4E/4C/4A,/4 z/4 B,/4E/4G/4 B/4E/4G/4B/4 e/4G/4B/4e/4 g | %2
 z/4 B,/4E/4G/4B/4G/4E/4B,/4 z/4 B,/4E/4G/4B/4G/4E/4B,/4 z/4 E/4^F/4=A/4d/4A/4F/4E/4 z/4 E/4F/4A/4c/4A/4F/4E/4 | %3
 z/4 D/4F/4A/4B/4A/4F/4D/4 z/4 D/4F/4A/4B/4A/4F/4D/4 z/4 B,/4E/4G/4 B/4E/4G/4B/4 e/4G/4B/4e/4 g | %4
 z/4 G/4c/4e/4 g/4c/4e/4g/4 c'/4e/4g/4c'/4 e' z/4 G/4B/4d/4 g/4B/4d/4g/4 b/4d/4g/4b/4 d' | %5
 z/4 E/4A/4c/4e/4c/4A/4E/4 z/4 E/4A/4c/4e/4c/4A/4E/4 z/4 G/4=B/4d/4 g/4B/4d/4g/4 =b/4d/4g/4b/4 d' | %6
 z/4 E/4A/4c/4e/4c/4A/4E/4 z/4 E/4A/4c/4e/4c/4A/4E/4 z/4 E/4G/4B/4e/4B/4G/4E/4 z/4 B,/4E/4G/4B/4G/4E/4B,/4 | %7
 z/4 =A,/4C/4E/4F/4E/4C/4A,/4 z/4 _A,/4D/4F/4B/4F/4D/4A,/4 z/4 G,/4B,/4E/4 G/4B,/4E/4G/4 B/4E/4G/4B/4 e | %8
 z/4 G/4c/4e/4g/4c/4e/4g/4 c'/4e/4g/4c'/4 e' z/4 G/4B/4d/4 g/4B/4d/4g/4 b/4d/4g/4b/4 d' | %9
 z/4 E/4A/4c/4e/4c/4A/4E/4 z/4 E/4A/4c/4e/4c/4A/4E/4 z/4 G/4=B/4d/4 g/4B/4d/4g/4 =b/4d/4g/4b/4 d' | %10
 z/4 E/4A/4c/4e/4c/4A/4E/4 z/4 E/4A/4c/4e/4c/4A/4E/4 z/4 E/4G/4B/4e/4B/4G/4E/4 z/4 B,/4E/4G/4B/4G/4E/4B,/4 | %11
 z/4 =A,/4C/4E/4F/4E/4C/4A,/4 z/4 _A,/4D/4F/4B/4F/4D/4A,/4 x B,/4E/4G/4B/4 e/4g/4b/4e'/4!8va(! [g'e'']!8va)! || %12
[K:Bb][M:2/4][Q:1/4=105]"^Allegretto con moto"!mf! [Bdfb]2"_grazioso" [FBdf]2 | [Adfa]2 [FAdf]2 | %14
 [GBeg][Beb] [Aea][Geg] | [Acea]2 [FAcf]2 |!p! [GBdg]2 [DGBd]2 | [E_GBe]2 [B,EGB]2 | %18
 [A,F]F [A,^CFA]G | [F,B,DF]!tenuto![FBdf] !tenuto![GBdg]!tenuto![Acfa] | [Bdfb]2 [FBdf]2 | %21
 [Adfa]2 [FAdf]2 | [GBeg][Beb] [Aea][Geg] | [Acea]2 [FAcf]2 | [GBdg]2 [DGBd]2 | %25
 [EGBe]2 [G,EG][^G,^G] | [A,EA][EFAd][EFAd][EFA^c] | [FBd][FBdf][GBdg][ABda] | [_Adfb]2 [ABdf]2 | %29
 [GBf]2 [GBe]2 | [_DGBe]2 [DGB]2 | [CEB]2 [CE_A]2 | [B,=E_A]2 E2 | [=A,CG]FEC | %34
 [_A,DG]2"_rall."[Q:1/4=90] =E[Q:1/4=80]F | %35
[Q:1/4=70] [DB]2"_rit."[Q:1/4=60] !tenuto![D^Fd]!tenuto!c || %36
[K:Eb][M:4/4]"_a tempo"[Q:1/4=60] z/4 B,/4E/4G/4B/4G/4E/4B,/4 z/4 B,/4E/4G/4B/4G/4E/4B,/4 z/4 B,/4E/4G/4B/4G/4E/4B,/4 z/4 B,/4E/4G/4B/4G/4E/4B,/4 | %37
 z/4 A,/4_C/4E/4F/4E/4C/4A,/4 z/4 A,/4C/4E/4F/4E/4C/4A,/4 z/4 B,/4E/4G/4 B/4E/4G/4B/4 e/4G/4B/4e/4 g | %38
 z/4 B,/4E/4G/4B/4G/4E/4B,/4 z/4 B,/4E/4G/4B/4G/4E/4B,/4 z/4 E/4^F/4=A/4d/4A/4F/4E/4 z/4 E/4F/4A/4c/4A/4F/4E/4 | %39
 z/4 D/4F/4A/4B/4A/4F/4D/4 z/4 D/4F/4A/4B/4A/4F/4D/4 z/4 B,/4E/4G/4 B/4E/4G/4B/4 e/4G/4B/4e/4 g | %40
 z/4 G/4c/4e/4 g/4c/4e/4g/4 c'/4e/4g/4c'/4 e' z/4 G/4B/4d/4 g/4B/4d/4g/4 b/4d/4g/4b/4 d' | %41
 z/4 E/4A/4c/4e/4c/4A/4E/4 z/4 E/4A/4c/4e/4c/4A/4E/4 z/4 G/4=B/4d/4 g/4B/4d/4g/4 =b/4d/4g/4b/4 d' | %42
 z/4 E/4A/4c/4e/4c/4A/4E/4 z/4 E/4A/4c/4e/4c/4A/4E/4 z/4 E/4G/4B/4e/4B/4G/4E/4 z/4 B,/4E/4G/4B/4G/4E/4B,/4 | %43
 z/4 =A,/4C/4E/4F/4E/4C/4A,/4 z/4 _A,/4D/4F/4B/4F/4D/4A,/4 z/4 G,/4B,/4E/4 G/4B,/4E/4G/4 B/4E/4G/4B/4 e | %44
 z/4 G/4c/4e/4 g/4c/4e/4g/4 c'/4e/4g/4c'/4 e' z/4 G/4B/4d/4 g/4B/4d/4g/4 b/4d/4g/4b/4 d' | %45
 z/4 E/4A/4c/4e/4c/4A/4E/4 z/4 E/4A/4c/4e/4c/4A/4E/4 z/4 G/4=B/4d/4 g/4B/4d/4g/4 =b/4d/4g/4b/4 d' | %46
 z/4 E/4A/4c/4e/4c/4A/4E/4 z/4 E/4A/4c/4e/4c/4A/4E/4 z/4 E/4G/4B/4e/4B/4G/4E/4 z/4 B,/4E/4G/4B/4G/4E/4B,/4 | %47
 z/4 =A,/4C/4E/4F/4E/4C/4A,/4 z/4 _A,/4D/4F/4B/4F/4D/4A,/4 z/4 G,/4B,/4"_senza rallentare"E/4 z/4 B,/4E/4G/4 z/4 E/4G/4B/4 z/4 E/4G/4c/4 | %48
!pp! [GBe]2 [A_cea]2!ppp!"^l.h." [GBeg]2 z2 |] %49
V:2
 !open![E,,B,,G,]2 !open!^F,!open!G, !open!C2 !open!B,2 | %1
 !open!F,2 !open!_C,!open!F, !open![E,,B,,G,]2 z2 | %2
 !open![E,,B,,G,]2 !open!^F,!open!G, !open!D2 !open!C2 | %3
 !open!B,!open!F, !open!G,!open!A, !open![E,,B,,G,]2 z2 | !open![C,G,E]4 !open![B,,G,D]4 | %5
 !open![A,,E,C]2 !open!=B,!open!C !open![G,,D,D]4 | %6
 !open![A,,E,C]2 !open!A,!open!F, !open!B,2 !open!G,2 | !open!F,2 !open!B,,2 !open![E,,B,,E,]4 | %8
 !open![C,G,E]4 !open![B,,G,D]4 | !open![A,,E,C]2 !open!=B,!open!C !open![G,,D,D]4 | %10
 !open![A,,E,C]2 !open!A,!open!F, !open!B,2 !open!G,2 | %11
 !open!F,2 !open!B,,2 E,,/4B,,/4E,/4G,/4 x3 ||[K:Bb][M:2/4] [B,,,B,,]2 [F,B,D]2 | %13
 [D,,A,,D,]2 [F,A,D]2 | [C,,C,]2 [G,B,E]2 | [F,,,F,,]2 [F,A,CE]2 | [G,,,G,,]2 [D,G,B,]2 | %17
 [C,,C,]2 [E,_G,]2 | [F,,F,]2 [F,,^C,F,]2 | %19
 [B,,,B,,]!tenuto![F,B,D] !tenuto![G,B,D]!tenuto![F,A,CE] | [B,,,B,,]2 [F,B,D]2 | %21
 [D,,A,,D,]2 [F,A,D]2 | [C,,C,]2 [G,B,E]2 | [F,,,F,,]2 [F,A,CE]2 | [G,,,G,,]2 [D,G,B,]2 | %25
 [C,,C,]2 [C,E,]2 | [F,,C,F,][F,A,D][F,A,D][F,A,^C] | [F,B,D][F,B,D][G,B,D][A,B,D] | %28
 [B,,,B,,]2 [B,,B,]2 | [E,,E,]2 [E,G,B,]2 | [E,,B,,G,]2 [E,G,B,]2 | [_A,,,_A,,]2 [A,,_A,]2 | %32
 [C,,C,]4 | [F,,C,G,]F,E,C, | [B,,,B,,]2 =E,F, | [B,,F,B,]2 [B,,^F,B,]2 || %36
[K:Eb][M:4/4] !open![E,,B,,G,]2 !open!^F,!open!G, !open!C2 !open!B,2 | %37
 !open!F,2 !open!_C,!open!F, !open![E,,B,,G,]2 z2 | %38
 !open![E,,B,,G,]2 !open!^F,!open!G, !open!D2 !open!C2 | %39
 !open!B,!open!F,!open!G,!open!A, !open![E,,B,,G,]2 z2 | !open![C,G,E]4 !open![B,,G,D]4 | %41
 !open![A,,E,C]2 !open!=B,!open!C !open![G,,D,D]4 | %42
 !open![A,,E,C]2 !open!A,!open!F, !open!B,2 !open!G,2 | !open!F,2 !open!B,,2 !open![E,,B,,E,]2 z2 | %44
 !open![C,G,E]4 !open![B,,G,D]4 | !open![A,,E,C]2 !open!=B,!open!C !open![G,,D,D]4 | %46
 !open![A,,E,C]2 !open!A,!open!F, !open!B,2 !open!G,2 | %47
 !open!F,2 !open!B,,2 !open![E,,B,,E,]!open!G,!open!B,!open!C | !open!E2 [F,_CE]2 [E,B,E]2 z2 |] %49
V:3
 x8 | x8 | x8 | x8 | x8 | x8 | x8 | x8 | x8 | x8 | x8 | x7!8va(! x!8va)! ||[K:Bb][M:2/4] x4 | x4 | %14
 x4 | x4 | x4 | x4 | x4 | x4 | x4 | x4 | x4 | x4 | x4 | x4 | x4 | x4 | x4 | x4 | x4 | x4 | x4 | %33
 x4 | x4 | x4 ||[K:Eb][M:4/4] x8 | x8 | x8 | x8 | x8 | x8 | x8 | x8 | x8 | x8 | x8 | x8 | %48
 x4 e'2 x2 |] %49

